toonz/sources/toonz/Resources/undo.svg

<svg width="18px" height="18px" xmlns="http://www.w3.org/2000/svg" xmlns:xlink="http://www.w3.org/1999/xlink">
<g style="">  <path d="M9.000000,11.167725 L16.000000,11.167725 L16.000000,7.167725 L9.000000,7.167725 L9.000000,3.167725 L2.000000,9.167725 L9.000000,15.167725 L9.000000,11.167725 Z " style="fill: rgba(218, 218, 218, 1.000000); stroke-width: 0.000000px; stroke: rgba(0, 0, 0, 1.000000); " fill="#e1e1e1" stroke="#000000" stroke-width="0.000000" />
  <path d="M10.000000,6.000000 L17.000000,6.000000 L17.000000,12.000000 L10.000000,12.000000 L10.000000,17.000000 L1.000000,8.929000 L10.000000,1.000000 Z M2.432000,9.000000 L9.000000,14.545000 L9.000000,11.000000 L16.000000,11.000000 L16.000000,7.000000 L9.000000,7.000000 L9.000000,3.410000 Z " style="fill: (null); stroke-width: 0.000000px; stroke: rgba(0, 0, 0, 1.000000); " fill="#(null)" stroke="#000000" stroke-width="0.000000" />
</g></svg>

<?xml version="1.0" encoding="UTF-8" standalone="no"?><!DOCTYPE svg PUBLIC "-//W3C//DTD SVG 1.1//EN" "http://www.w3.org/Graphics/SVG/1.1/DTD/svg11.dtd"><svg width="100%" height="100%" viewBox="0 0 18 18" version="1.1" xmlns="http://www.w3.org/2000/svg" xmlns:xlink="http://www.w3.org/1999/xlink" xml:space="preserve" xmlns:serif="http://www.serif.com/" style="fill-rule:evenodd;clip-rule:evenodd;stroke-linejoin:round;stroke-miterlimit:1.41421;"><path d="M9,11l7,0l0,-4l-7,0l0,-4l-7,6l7,6l0,-4Z" style="fill:#e0e0e0;"/><path d="M10,6l7,0l0,6l-7,0l0,5l-9,-8.071l9,-7.929l0,5Zm-7.568,3l6.568,5.545l0,-3.545l7,0l0,-4l-7,0l0,-3.59l-6.568,5.59Z" style="fill:#111;"/></svg>
